X:280
T:The Chamberlain Reel
R:Reel
M:2/4
L:1/16
K:D
AG|FDDD DFAd|BGGG G2ed|cAAA Aceg|fddd d2AG|
FDDD DFAd|BGGG G2ed|cAAA Aceg|fddd d2:|
|:f2|gagf g2fg|abaf d2f2|edef gece|defg a3f|
gagf g2fg|abaf d2f2|edef gece|dfec d2:|
